X:75
T:Newburn Lads
T:The Braw Lads o' Jethart
Z:Jack Campin, http://www.campin.me.uk/
S:Northumbrian Minstrelsy
M:4/4
L:1/8
K:G
B/c/|dBGB dBGB|dBdg f2ed|ecAc ecAc|edef     gage|
     dBGB dBGB|dBdg f2df|afge fdgB|A/A/A Bd e2e:|
e   |dgBg dgBg|dgBg fedf|eaca eaca|ecef     gage|
     dgBg dgBg|dgBg fedf|afge fdgB|A/A/A Bd e2e:|

